!!!OTL@@DE: Gebet vor der Schlacht
!!!COM: Weber, Karl Maria von
!!!CDT: 1786-1826
!!!OPS:	Op. 42
!!!OMB: H. II. No. 3
!!!ODT: 1814/10/21
!!!LYR: Körner, Theodor
!!!LDT: 1813
!!!OCL: Erk, Ludwig
!!!GCO: Deutscher Liederschatz, Band 1
!!!OMD: Adagio non tropp.
**kern	**kern	**dynam	**kern	**text	**text	**dynam
*part2	*part2	*part2	*part1	*part1	*part1	*part1
*staff3	*staff2	*staff1/2	*staff1	*staff1	*staff1	*
*clefF4	*clefG2	*	*clefG2	*	*	*
*k[]	*k[]	*	*k[]	*	*	*
*M3/4	*M3/4	*	*M3/4	*	*	*
*MM120	*MM120	*	*MM120	*	*	*
=1	=1	=1	=1	=1	=1	=1
*^	*^	*	*	*	*	*
2rAyy	4C 4CC	4G< 4E<	2rBByy	p <	4g	Hör'	Wie	p <
.	4E 4C	4c< 4G<	.	.	4cc	uns,	auch	.
4G/	4C	4e	4c	[	4ee	All-	die	[[
=2	=2	=2	=2	=2	=2	=2	=2	=2
4.F	[2C [2CC	(>4.e	4.A	>	4.ee	-mäch-	Höl-	>
8F	.	8d	8A	.	8dd	-ti-	-le	.
8F	8C] 8CC]	8d)	8A	]	8dd	-ger!	braust,	.
8r	8rDDyy	8r	8rAyy	.	8r	.	.	]
=3	=3	=3	=3	=3	=3	=3	=3	=3
4F	4BB	4d	4G	<	4dd	hör'	Gott,	<
4D	4GG	4f	4B	.	4ff	uns,	dei-	.
(8EL	4GG	(8eL	4B	.	8eeL	All-	-ne	.
8FJ)	.	8dJ)	.	[	8ddJ	.	.	[[
!!linebreak:original
=4	=4	=4	=4	=4	=4	=4	=4	=4
(4.F	(4.GG	(4.d	(4.B	.	4.dd	-gü-	star-	>
8E)	8C)	8c)	8G)	.	8cc	-ti-	-ke	.
8E	8C	8c	8G	.	8cc	-ger!	Faust	.
8r	8rEEyy	8r	8rGyy	.	8r	.	.	]
*v	*v	*	*	*	*	*	*	*
*	*v	*v	*	*	*	*	*
=5	=5	=5	=5	=5	=5	=5
4GG 4GGG	4G	p	4g	himm-	stürzt	p
4GG	4G	.	4g	-li-	das	.
4GG	4G	.	4g	-scher	Ge-	.
=6	=6	=6	=6	=6	=6	=6
4C 4GG	4e-X 4G	.	4ee-X	Füh-	-bäu-	>
4D 4GG	4d 4G	.	4dd	-rer	-de	.
4E-X 4GG	4c 4G	.	4cc	der	der	]]
=7	=7	=7	=7	=7	=7	=7
4D 4GG	4B 4G	.	4b	Schlach-	Lü-	.
4BB 4GG	4G	.	4g	-ten!	-ge.	.
4r;	4r;	.	4r;	.	.	.
!!linebreak:original
=8	=8	=8	=8	=8	=8	=8
2E-X 2EE-X	2e-X 2B-X 2G	f >	2ee-X	Va-	Führ'	f
.	.	]	.	.	.	.
8E-	8B- 8G	.	8b-X	-ter,	uns,	.
8r	8r	.	8r	.	.	.
=9	=9	=9	=9	=9	=9	=9
4G 4E-X	4e-X 4B-X	p	4ee-X	dich	Herr	p
4A-X 4E-	4e- 4c	.	4ee-	prei-	Ze-	.
4B-X 4E-	4e- 4d-X	.	4ee-	-sen	-ba-	.
=10	=10	=10	=10	=10	=10	=10
2A-X 2AA-X	2e-X 2c	.	2ee-X	wir!	-oth,	.
4r	4r	.	4r	.	.	.
=11	=11	=11	=11	=11	=11	=11
!	!	!LO:DY:rj	!	!	!	!
2C 2CC	2en 2B-X 2G	f	2een	Va-	führ'	f
8En/ 8C/	8c 8B-	.	8cc	-ter,	uns,	.
8r	8r	.	8r	.	.	.
=12	=12	=12	=12	=12	=12	=12
4G 4C	4e 4B-X	.	4ee	wir	drei-	.
4F 4C	4f 4A-X	.	4ff	dan-	-ein'-	.
4En 4C	4g 4B-	.	4gg	-ken	-ger	.
!!linebreak:original
=13	=13	=13	=13	=13	=13	=13
2F 2FF	2f 2A-X	.	2ff	dir,	Gott,	.
4r	4r	.	4r	.	.	.
=14	=14	=14	=14	=14	=14	=14
*	*^	*	*	*	*	*
4C 4FF	4e-X	4An	>	4ee-X	dass	führ'	>
4D 4FF	4d	4A	.	4dd	wir	uns	.
4E-X 4FF	4c	4A	]	4cc	zur	zur	]]
=15	=15	=15	=15	=15	=15	=15	=15
*^	*	*	*	*	*	*	*
4E-X	8.FF#XL	4c	8.AL	.	4cc	Frei-	Schlacht	>
.	16GGJk	.	16GJk	>	.	.	.	.
4E-	4AA	4c	4F#X	.	4cc	-heit	und	.
4E-	4FF#	4c	4A	]	4cc	er-	zum	]
=16	=16	=16	=16	=16	=16	=16	=16	=16
2En	2GG	(2c	2G	pp	(2cc	-wach-	Sie-	pp
.	.	(16qqe/	.	.	.	.	.	.
.	.	.	.	.	(16qqee	.	.	.
(4F	4GG 4GGG	4d))	(4B	.	4dd))	.	.	.
=17	=17	=17	=17	=17	=17	=17	=17	=17
4E)	4C 4CC	4c	4G)	.	4cc	-ten.	-ge!	.
4r	4rCCyy	4r	4rAyy	.	4r	.	.	.
4r	4rDDyy	4r	4rAyy	.	4r	.	.	.
*v	*v	*	*	*	*	*	*	*
*	*v	*v	*	*	*	*	*
!!linebreak:original
=18:|!	=18:|!	=18:|!	=18:|!	=18:|!	=18:|!	=18:|!
4C 4CC	4G< 4E<	p <	4g	-Führ'	.	p <
4E 4C	4c< 4G<	.	4cc	uns!	.	[
8r	8r	.	8r	.	.	.
8G 8C	8e 8c	[	8ee	Fall'	.	< [
=19	=19	=19	=19	=19	=19	=19
*^	*	*	*	*	*	*
4.F	2C 2CC	(4.e 4.A	>	4.ee	un-	.	>
8F	.	8d 8A	.	8dd	-ser	.	.
4F	4C	4d) 4A	]	4dd	Loos	.	]
=20	=20	=20	=20	=20	=20	=20	=20
*	*	*^	*	*	*	*	*
4F	4BB	4d 4G	4rCyy	<	4dd	auch	.	<
4D	4GG	4f	4B	.	4ff	tief	.	.
(8EL	4GG	(8eL	4B	.	8eeL	in	.	.
8FJ)	.	8dJ)	.	[	8ddJ	.	.	[
*	*	*v	*v	*	*	*	*	*
=21	=21	=21	=21	=21	=21	=21	=21
(4.F	(4.GG	(>4.d 4.B	>	4.dd	Gra-	.	>
8E)	8C)	8c) 8G	.	8cc	-bes	.	.
4E	4C	4c 4G	]	4cc	Schoss:	.	]
*v	*v	*	*	*	*	*	*
!!linebreak:original
=22	=22	=22	=22	=22	=22	=22
4GG 4GGG	4G	p	4g	Lob	.	p
4GG	4G	.	4g	doch	.	.
4GG	4G	.	4g	und	.	.
=23	=23	=23	=23	=23	=23	=23
4C 4GG	4e-X 4G	.	4ee-X	Preis	.	>
4D 4GG	4d 4G	.	4dd	dei-	.	.
4E-X 4GG	4c 4G	.	4cc	-nem	.	]
=24	=24	=24	=24	=24	=24	=24
4D 4GG	4B 4G	.	4b	Na-	.	.
4BB 4GG	4G	.	4g	-men!	.	.
4r;	4r;	.	4r;	.	.	.
=25	=25	=25	=25	=25	=25	=25
2E-X 2EE-X	2e-X 2B-X 2G	f	2ee-X	Reich,	.	f
4r	4r	.	4r	.	.	.
!!linebreak:original
=26	=26	=26	=26	=26	=26	=26
8.GL 8.E-X	8.e-XL 8.B-X	p <	8.ee-X	hraft	.	p <
16GJk 16E-	16e-Jk 16B-	.	16ee-	und	.	.
4A-X 4E-	4e- 4c	[	4ee-	Herr-	.	[
4B-X 4E-	4e- 4d-X	<	4ee-	-lich-	.	>
=27	=27	=27	=27	=27	=27	=27
4A-X 4AA-X	4e-X 4c	[	4ee-	-keit	.	]
4r	4r	.	4r	.	.	.
4AA-	4e- 4c 4A-X	f	4ee-	sind	.	f
=28	=28	=28	=28	=28	=28	=28
2.C 2.CC	2.en 2.B-X 2.G	>	2.een^	dein	.	.
.	.	]	.	.	.	.
=29	=29	=29	=29	=29	=29	=29
4G 4C	4e 4B-X	.	4ee	in	.	.
4F 4C	4f 4A-X	.	4ff	E-	.	.
4E 4C	4g 4B-	.	4gg	-wig-	.	.
=30	=30	=30	=30	=30	=30	=30
2F 2FF	2f 2A-X	.	2ff	-keit!	.	.
4r	4r	.	4r	.	.	.
!!linebreak:original
=31	=31	=31	=31	=31	=31	=31
4C 4FF	4e-X 4An	p >	4ee-X	Führ'	.	p >
4D 4FF	4d 4A	.	4dd	uns,	.	.
4E-X 4FF	4c 4A	]	4cc	All-	.	]
=32	=32	=32	=32	=32	=32	=32
*^	*^	*	*	*	*	*
4.E-X	(8.FF#XL	4.c	8.AL	] >	4.cc	-mäch-	.	>
.	16GGk	.	16Gk	.	.	.	.	.
.	8AA)	.	8F#X	.	.	.	.	.
8E-	8AAJ	8c	8F#J	.	8cc	-ti-	.	.
8E-	8FF#	8c	8A	.	8cc	-ger!	.	]
8r	8rEEyy	8r	8rAyy	]	8r	.	.	.
=33	=33	=33	=33	=33	=33	=33	=33	=33
2En	2GG	(2c	2G	pp	(2cc	A-	.	pp
.	.	(16qqe	.	.	(16qqee/	.	.	.
(4F	4GG 4GGG	4d)	(4B	.	4dd))	.	.	.
*	*	*v	*v	*	*	*	*	*
=34	=34	=34	=34	=34	=34	=34	=34
*	*	*^	*	*	*	*	*
4E)	4C 4CC	4c)	4G)	.	4cc	-men.	.	.
4r	4rBBByy	4r	4rByy	.	4r	.	.	.
4r	4rBBByy	4r	4rByy	.	4r	.	.	.
*v	*v	*	*	*	*	*	*	*
*	*v	*v	*	*	*	*	*
==	==	==	==	==	==	==
*-	*-	*-	*-	*-	*-	*-
!!!system-decoration: s1{(s2,s3)}
!!!RDF**kern: > = above
!!!RDF**kern: < = below
!!!SMS: Deutscher Liederschatz, Band 1, Ludwig Erk, ed.
!!!EFL: 001/651
!!!ENC: Craig Stuart Sapp
!!!END: 2021/01/25
!!!EED: Craig Stuart Sapp
!!!EEV: 2021/01/25
